icons/folder-lottie.svg

<svg xmlns="http://www.w3.org/2000/svg" viewBox="0 0 32 32">
  <path d="M13.84376,7.53645l-1.28749-1.0729A2,2,0,0,0,11.27591,6H4A2,2,0,0,0,2,8V24a2,2,0,0,0,2,2H28a2,2,0,0,0,2-2V10a2,2,0,0,0-2-2H15.12412A2,2,0,0,1,13.84376,7.53645Z" style="fill: #00bfa5"/>
  <path d="M28,10H18a4,4,0,0,0-4,4V24a4,4,0,0,0,4,4H28a4,4,0,0,0,4-4V14A4,4,0,0,0,28,10Zm0,5.5625a.47883.47883,0,0,1-.43665.465c-1.54144.20074-2.45709,1.489-3.71569,3.50232-1.23218,1.97137-2.61823,4.19049-5.32227,4.44586A.49478.49478,0,0,1,18,23.47485V22.4375a.47885.47885,0,0,1,.43665-.465c1.54144-.20074,2.45709-1.489,3.71569-3.50226,1.23218-1.97143,2.61823-4.19049,5.32227-4.44592A.49478.49478,0,0,1,28,14.52509Z" style="fill: #a7ffeb;fill-rule: evenodd"/>
</svg>

<svg xmlns="http://www.w3.org/2000/svg" viewBox="0 0 32 32"><path fill="#00bfa5" d="m13.844 7.536-1.288-1.072A2 2 0 0 0 11.276 6H4a2 2 0 0 0-2 2v16a2 2 0 0 0 2 2h24a2 2 0 0 0 2-2V10a2 2 0 0 0-2-2H15.124a2 2 0 0 1-1.28-.464Z"/><path fill="#a7ffeb" fill-rule="evenodd" d="M28 10H18a4 4 0 0 0-4 4v10a4 4 0 0 0 4 4h10a4 4 0 0 0 4-4V14a4 4 0 0 0-4-4Zm0 5.563a.479.479 0 0 1-.437.464c-1.541.201-2.457 1.49-3.715 3.503-1.233 1.971-2.619 4.19-5.323 4.446a.495.495 0 0 1-.525-.501v-1.038a.479.479 0 0 1 .437-.465c1.541-.2 2.457-1.489 3.715-3.502 1.233-1.971 2.619-4.19 5.323-4.446a.495.495 0 0 1 .525.501Z"/></svg>
